X:4394
L:1/8
Q:1/4=120
M:4/4
K:Dmin
"^Slow" (G>F) | D2 d2 (d>e)(f>d) | (c>d)(cA F2) (G>A) |{c} B2 (AG) (d>c)(B>A) | G3 E D2 (G>F) | 
 D2 d2 (d>e)(fd) | (c>d)(cA F2) (GA) | B2 (AG) (d>c)(B>A) | G3 F D2 :: (A>G) | F2 f2 f3 g | 
 (f>g)(f>d) (c>d)(f>c) | d2 g2 g3 a | (ba)(gf) (f>d) | (c>d)(f>g){fg} a2 (ga) | f2 FG (BA)GF | 
 B2 (A>G) (d>c)(B>A) | G3 F D2 :| !fermata!G4 ||

